icons/svgs/gauge-solid.svg

<svg width="24" height="24" viewBox="0 0 24 24" fill="none" xmlns="http://www.w3.org/2000/svg">
<path d="M2 12C2 8.44531 3.875 5.16406 7 3.36719C10.0859 1.57031 13.875 1.57031 17 3.36719C20.0859 5.16406 22 8.44531 22 12C22 15.5938 20.0859 18.875 17 20.6719C13.875 22.4688 10.0859 22.4688 7 20.6719C3.875 18.875 2 15.5938 2 12ZM14.5 15.75C14.5 14.7344 13.8359 13.8359 12.9375 13.4453V5.4375C12.9375 4.92969 12.5078 4.5 12 4.5C11.4531 4.5 11.0625 4.92969 11.0625 5.4375V13.4453C10.125 13.8359 9.5 14.7344 9.5 15.75C9.5 17.1562 10.5938 18.25 12 18.25C13.3672 18.25 14.5 17.1562 14.5 15.75ZM7.625 8.875C8.28906 8.875 8.875 8.32812 8.875 7.625C8.875 6.96094 8.28906 6.375 7.625 6.375C6.92188 6.375 6.375 6.96094 6.375 7.625C6.375 8.32812 6.92188 8.875 7.625 8.875ZM7 12C7 11.3359 6.41406 10.75 5.75 10.75C5.04688 10.75 4.5 11.3359 4.5 12C4.5 12.7031 5.04688 13.25 5.75 13.25C6.41406 13.25 7 12.7031 7 12ZM18.25 13.25C18.9141 13.25 19.5 12.7031 19.5 12C19.5 11.3359 18.9141 10.75 18.25 10.75C17.5469 10.75 17 11.3359 17 12C17 12.7031 17.5469 13.25 18.25 13.25ZM17.625 7.625C17.625 6.96094 17.0391 6.375 16.375 6.375C15.6719 6.375 15.125 6.96094 15.125 7.625C15.125 8.32812 15.6719 8.875 16.375 8.875C17.0391 8.875 17.625 8.32812 17.625 7.625Z" fill="black"/>
</svg>

<svg xmlns="http://www.w3.org/2000/svg" width="24" height="24" fill="currentColor" class="icon-gauge-solid" viewBox="0 0 24 24">
  <mask id="a" width="20" height="21" x="2" y="2" maskUnits="userSpaceOnUse" style="mask-type:alpha">
    <path d="M2 12a9.93 9.93 0 0 1 5-8.633c3.086-1.797 6.875-1.797 10 0 3.086 1.797 5 5.078 5 8.633 0 3.594-1.914 6.875-5 8.672-3.125 1.797-6.914 1.797-10 0C3.875 18.875 2 15.594 2 12m12.5 3.75c0-1.016-.664-1.914-1.562-2.305V5.438A.95.95 0 0 0 12 4.5a.925.925 0 0 0-.937.938v8.007A2.505 2.505 0 0 0 9.5 15.75c0 1.406 1.094 2.5 2.5 2.5 1.367 0 2.5-1.094 2.5-2.5M7.625 8.875c.664 0 1.25-.547 1.25-1.25 0-.664-.586-1.25-1.25-1.25-.703 0-1.25.586-1.25 1.25 0 .703.547 1.25 1.25 1.25M7 12c0-.664-.586-1.25-1.25-1.25-.703 0-1.25.586-1.25 1.25 0 .703.547 1.25 1.25 1.25.664 0 1.25-.547 1.25-1.25m11.25 1.25c.664 0 1.25-.547 1.25-1.25 0-.664-.586-1.25-1.25-1.25-.703 0-1.25.586-1.25 1.25 0 .703.547 1.25 1.25 1.25m-.625-5.625c0-.664-.586-1.25-1.25-1.25-.703 0-1.25.586-1.25 1.25 0 .703.547 1.25 1.25 1.25.664 0 1.25-.547 1.25-1.25"/>
  </mask>
  <g mask="url(#a)">
    <path d="M0 0h24v24H0z"/>
  </g>
</svg>
